X: 50
T:Kesh Jig, The
M:6/8
L:1/8
S:Bothy Band
R:jig
K:G
G3  GAB|ABA ABd|edd gdd|edB dBA|G3  GAB|ABA ABd|edd gdB|1AGF G2  D:|
2AGF G2 A|:B3  dBd|ege dBA|BAB dBG|ABA AGA|B3  dBd|ege dBd|gfg aga |1bgf
 g2  A:|2 bgf g3  ||
